X: 30840
T: Our Trip To Toronto
R: reel
M: 4/4
K: Adorian
|:d|eABG AGEG|~A2 EA B/c/d ea|gedB ABGA|EGGF GABd|
eA ~A2 BAGE|~G3A B/c/d eg|aged BG ~G2|ABde BAA:|
|:d|ea `a2 bage|g2 dB GA B/c/d|eaag gedB|ABGE Gged|
~c3A ~B3G|~A2 GA cdeg|aged BG ~G2|ABde BAA:|

